Newaita-dark/actions/16/draw-halfcircle1.svg

<svg height="16" viewBox="0 0 16 16" width="16" xmlns="http://www.w3.org/2000/svg"><g fill="#e0e0e0"><path d="m7.9375 2.109375c-3.296875 0-5.953125 2.65625-5.953125 5.953125 0 3.300781 2.65625 5.953125 5.953125 5.953125v-1.320313c-2.566406 0-4.628906-2.066406-4.628906-4.632812s2.0625-4.628906 4.628906-4.628906zm0 0"/><path d="m7.9375 2.109375c.367188 0 .664062.296875.664062.660156v10.585938c0 .367187-.296874.660156-.664062.660156-.363281 0-.660156-.292969-.660156-.660156v-10.585938c0-.363281.296875-.660156.660156-.660156zm0 0"/></g></svg>

<svg xmlns="http://www.w3.org/2000/svg" xmlns:xlink="http://www.w3.org/1999/xlink" width="16px" height="16px" viewBox="0 0 16 16" version="1.1">
<g id="surface1">
     <defs>
  <style id="current-color-scheme" type="text/css">
   .ColorScheme-Text { color:#eeeeee; } .ColorScheme-Highlight { color:#424242; }
  </style>
 </defs>
<path style="fill:currentColor" class="ColorScheme-Text" d="M 7.9375 2.109375 C 4.640625 2.109375 1.984375 4.765625 1.984375 8.0625 C 1.984375 11.363281 4.640625 14.015625 7.9375 14.015625 L 7.9375 12.695312 C 5.371094 12.695312 3.308594 10.628906 3.308594 8.0625 C 3.308594 5.496094 5.371094 3.433594 7.9375 3.433594 Z M 7.9375 2.109375 "/>
     <defs>
  <style id="current-color-scheme" type="text/css">
   .ColorScheme-Text { color:#eeeeee; } .ColorScheme-Highlight { color:#424242; }
  </style>
 </defs>
<path style="fill:currentColor" class="ColorScheme-Text" d="M 7.9375 2.109375 C 8.304688 2.109375 8.601562 2.40625 8.601562 2.769531 L 8.601562 13.355469 C 8.601562 13.722656 8.304688 14.015625 7.9375 14.015625 C 7.574219 14.015625 7.277344 13.722656 7.277344 13.355469 L 7.277344 2.769531 C 7.277344 2.40625 7.574219 2.109375 7.9375 2.109375 Z M 7.9375 2.109375 "/>
</g>
</svg>
